src/main/webapp/swbadmin/jsp/process/commons/css/images/activar.svg

<?xml version="1.0" encoding="UTF-8" standalone="no"?>
<!-- Generator: Adobe Illustrator 16.0.0, SVG Export Plug-In . SVG Version: 6.00 Build 0)  -->

<svg
   xmlns:dc="http://purl.org/dc/elements/1.1/"
   xmlns:cc="http://creativecommons.org/ns#"
   xmlns:rdf="http://www.w3.org/1999/02/22-rdf-syntax-ns#"
   xmlns:svg="http://www.w3.org/2000/svg"
   xmlns="http://www.w3.org/2000/svg"
   xmlns:xlink="http://www.w3.org/1999/xlink"
   xmlns:sodipodi="http://sodipodi.sourceforge.net/DTD/sodipodi-0.dtd"
   xmlns:inkscape="http://www.inkscape.org/namespaces/inkscape"
   version="1.1"
   x="0px"
   y="0px"
   width="17.997999"
   height="85"
   viewBox="0 0 17.998 85"
   enable-background="new 0 0 17.998 55.993"
   xml:space="preserve"
   id="svg2"
   inkscape:version="0.91 r13725"
   sodipodi:docname="activar.svg"><metadata
     id="metadata22"><rdf:RDF><cc:Work
         rdf:about=""><dc:format>image/svg+xml</dc:format><dc:type
           rdf:resource="http://purl.org/dc/dcmitype/StillImage" /><dc:title></dc:title></cc:Work></rdf:RDF></metadata><defs
     id="defs20" /><sodipodi:namedview
     pagecolor="#ffffff"
     bordercolor="#666666"
     borderopacity="1"
     objecttolerance="10"
     gridtolerance="10"
     guidetolerance="10"
     inkscape:pageopacity="0"
     inkscape:pageshadow="2"
     inkscape:window-width="1113"
     inkscape:window-height="590"
     id="namedview18"
     showgrid="false"
     inkscape:zoom="2.9803225"
     inkscape:cx="25.251205"
     inkscape:cy="21.623046"
     inkscape:window-x="0"
     inkscape:window-y="0"
     inkscape:window-maximized="0"
     inkscape:current-layer="svg2"
     showguides="true"
     inkscape:guide-bbox="true"><sodipodi:guide
       position="25.268029,34.876996"
       orientation="0,1"
       id="guide4174" /><sodipodi:guide
       position="23.251332,20.404229"
       orientation="0,1"
       id="guide4176" /><sodipodi:guide
       position="15.540431,-8.3040466"
       orientation="0,1"
       id="guide4178" /></sodipodi:namedview><g
     id="Capa_1"
     display="none"
     style="display:none"
     transform="translate(0,29.007)"><image
       sodipodi:absref="/Users/hasdai/Desarrollo/SWBP5/SWBPBundle/SWBP/src/main/webapp/swbadmin/jsp/process/commons/css/images/plantilla documentacion/images/cssradiobutton.png"
       xlink:href="plantilla documentacion/images/cssradiobutton.png"
       style="display:inline;overflow:visible"
       id="image5"
       transform="scale(0.9999,0.9999)"
       height="56"
       width="18"
       overflow="visible"
       display="inline" /></g><g
     id="g8"
     transform="translate(0,-0.65746585)"><path
       style="fill:#57b4ae"
       inkscape:connector-curvature="0"
       id="path10"
       d="m 16.437,50.438 -14.875,0 0,-14.875 14.875,0 0,14.875 z m -13.884,-0.992 12.891,0 0,-12.89 -12.891,0 0,12.89 z" /><path
       style="clip-rule:evenodd;fill:#57b4ae;fill-rule:evenodd"
       inkscape:connector-curvature="0"
       id="path12"
       d="m 7.612,43.74 c 0.079,-0.095 0.126,-0.162 0.182,-0.218 1.608,-1.611 3.218,-3.22 4.825,-4.836 0.239,-0.238 0.51,-0.335 0.831,-0.223 0.115,0.041 0.225,0.122 0.312,0.207 0.329,0.317 0.651,0.642 0.972,0.967 0.351,0.354 0.351,0.779 -0.002,1.134 -0.377,0.382 -0.758,0.759 -1.137,1.139 C 11.8,43.708 10,45.502 8.206,47.302 7.975,47.534 7.712,47.653 7.392,47.547 7.267,47.504 7.146,47.424 7.054,47.331 5.795,46.079 4.539,44.825 3.288,43.568 2.93,43.212 2.934,42.786 3.293,42.426 c 0.314,-0.319 0.631,-0.635 0.949,-0.95 0.365,-0.36 0.788,-0.359 1.154,0.004 0.69,0.693 1.383,1.388 2.072,2.082 0.043,0.043 0.075,0.094 0.144,0.178 z" /></g><g
     id="g14"
     transform="translate(0,-0.65746585)"><path
       style="fill:#979797"
       inkscape:connector-curvature="0"
       id="path16"
       d="m 16.437,21.149 -14.875,0 0,-14.875 14.875,0 0,14.875 z m -13.884,-0.992 12.891,0 0,-12.89 -12.891,0 0,12.89 z" /></g><g
     id="g4168"
     transform="translate(0,29.897534)"
     style="fill:#b3b3b3"><path
       d="m 16.437,50.438 -14.875,0 0,-14.875 14.875,0 0,14.875 z m -13.884,-0.992 12.891,0 0,-12.89 -12.891,0 0,12.89 z"
       id="path4170"
       inkscape:connector-curvature="0"
       style="fill:#b3b3b3" /><path
       d="m 7.612,43.74 c 0.079,-0.095 0.126,-0.162 0.182,-0.218 1.608,-1.611 3.218,-3.22 4.825,-4.836 0.239,-0.238 0.51,-0.335 0.831,-0.223 0.115,0.041 0.225,0.122 0.312,0.207 0.329,0.317 0.651,0.642 0.972,0.967 0.351,0.354 0.351,0.779 -0.002,1.134 -0.377,0.382 -0.758,0.759 -1.137,1.139 C 11.8,43.708 10,45.502 8.206,47.302 7.975,47.534 7.712,47.653 7.392,47.547 7.267,47.504 7.146,47.424 7.054,47.331 5.795,46.079 4.539,44.825 3.288,43.568 2.93,43.212 2.934,42.786 3.293,42.426 c 0.314,-0.319 0.631,-0.635 0.949,-0.95 0.365,-0.36 0.788,-0.359 1.154,0.004 0.69,0.693 1.383,1.388 2.072,2.082 0.043,0.043 0.075,0.094 0.144,0.178 z"
       id="path4172"
       inkscape:connector-curvature="0"
       style="clip-rule:evenodd;fill:#b3b3b3;fill-rule:evenodd" /></g></svg>

<?xml version="1.0" encoding="utf-8"?>
<!-- Generator: Adobe Illustrator 16.0.0, SVG Export Plug-In . SVG Version: 6.00 Build 0)  -->
<!DOCTYPE svg PUBLIC "-//W3C//DTD SVG 1.1//EN" "http://www.w3.org/Graphics/SVG/1.1/DTD/svg11.dtd">
<svg version="1.1" xmlns="http://www.w3.org/2000/svg" xmlns:xlink="http://www.w3.org/1999/xlink" x="0px" y="0px"
	 width="17.998px" height="55.993px" viewBox="0 0 17.998 55.993" enable-background="new 0 0 17.998 55.993" xml:space="preserve">
<g id="Capa_1" display="none">
	
		<image display="inline" overflow="visible" width="18" height="56" xlink:href="plantilla documentacion/images/cssradiobutton.png"  transform="matrix(0.9999 0 0 0.9999 0 0)">
	</image>
</g>
<g id="Capa_2">
	<g>
		<path fill="#57B4AE" d="M16.437,50.438H1.562V35.563h14.875V50.438z M2.553,49.446h12.891V36.556H2.553V49.446z"/>
		<path fill-rule="evenodd" clip-rule="evenodd" fill="#57B4AE" d="M7.612,43.74c0.079-0.095,0.126-0.162,0.182-0.218
			c1.608-1.611,3.218-3.22,4.825-4.836c0.239-0.238,0.51-0.335,0.831-0.223c0.115,0.041,0.225,0.122,0.312,0.207
			c0.329,0.317,0.651,0.642,0.972,0.967c0.351,0.354,0.351,0.779-0.002,1.134c-0.377,0.382-0.758,0.759-1.137,1.139
			c-1.795,1.798-3.595,3.592-5.389,5.392c-0.231,0.232-0.494,0.351-0.814,0.245c-0.125-0.043-0.246-0.123-0.338-0.216
			c-1.259-1.252-2.515-2.506-3.766-3.763c-0.358-0.356-0.354-0.782,0.005-1.142c0.314-0.319,0.631-0.635,0.949-0.95
			c0.365-0.36,0.788-0.359,1.154,0.004c0.69,0.693,1.383,1.388,2.072,2.082C7.511,43.605,7.543,43.656,7.612,43.74z"/>
	</g>
	<g>
		<path fill="#979797" d="M16.437,21.149H1.562V6.274h14.875V21.149z M2.553,20.157h12.891V7.267H2.553V20.157z"/>
	</g>
</g>
</svg>
